apps/website/src/assets/logos/logo.svg

<svg xmlns="http://www.w3.org/2000/svg" fill="none" viewBox="0 0 400 400">
  <rect width="400" height="400" fill="#faad00" rx="128" />
  <path
    fill="#fff"
    d="M249.82 166.581c4.034-13.581 12.781-26.582 21.392-35.33 1.929-1.957.571-5.251-2.187-5.251-31.524 0-59.001 24.651-73.466 61.141-8.965-11.016-22.289-18.576-37.474-20.236 3.993-13.703 12.808-26.838 21.487-35.654 1.929-1.957.571-5.251-2.187-5.251-37.283 0-68.889 34.438-80.0539 82.188.0407-.054-1.3311 7.87-1.3311 12.082 0 29.673 24.937 53.73 55.701 53.73 20.659 0 38.683-10.854 48.299-26.973C209.616 263.146 227.64 274 248.299 274 279.063 274 304 249.943 304 220.27s-24.136-52.92-54.207-53.689h.027Z"
  />
</svg>

<svg width="400" height="400" viewBox="0 0 400 400" fill="none" xmlns="http://www.w3.org/2000/svg">
  <g clip-path="url(#clip0_516_82)">
    <path
      d="M272 0H128C57.3075 0 0 57.3075 0 128V272C0 342.692 57.3075 400 128 400H272C342.692 400 400 342.692 400 272V128C400 57.3075 342.692 0 272 0Z"
      fill="#100F0D"
    />
    <path
      d="M249.82 166.581C253.854 153 262.601 139.999 271.212 131.251C273.141 129.294 271.783 126 269.025 126C237.501 126 210.024 150.651 195.559 187.141C186.594 176.125 173.27 168.565 158.085 166.905C162.078 153.202 170.893 140.067 179.572 131.251C181.501 129.294 180.143 126 177.385 126C140.102 126 108.496 160.438 97.3311 208.188C97.3718 208.134 96 216.058 96 220.27C96 249.943 120.937 274 151.701 274C172.36 274 190.384 263.146 200 247.027C209.616 263.146 227.64 274 248.299 274C279.063 274 304 249.943 304 220.27C304 190.597 279.864 167.35 249.793 166.581H249.82Z"
      fill="#FEFDF9"
    />
  </g>
  <defs>
    <clipPath id="clip0_516_82">
      <rect width="400" height="400" fill="white" />
    </clipPath>
  </defs>
</svg>
